X:1
T:SUWANEE SWING.
T:SUWANEE SWING.
T:March And Two Step.
T:By S. S. OAKFORD.
T:Copyright 1903 by J. W. Jenkins Sons' Music Co.
T:Copyright 1903 by J. W. Jenkins Sons' Music Co.
T:Copyright 1903 by J. W. Jenkins Sons' Music Co.
T:Copyright 1903 by J. W. Jenkins Sons' Music Co.
C:By S. S. OAKFORD.
Z:Copyright 1903 by J. W. Jenkins Sons' Music Co.
%%score { ( 1 4 ) | ( 2 3 ) }
L:1/8
Q:1/4=190
M:2/2
K:C
V:1 treble nm="Piano" snm="Pno."
V:4 treble 
V:2 bass 
V:3 bass 
V:1
"^Moderato."!f! (3G/A/B/ | c2 BA G2 CD | %2
 E2"^Respectfully Dedicated to Miss Zoe Bell Miller." C2 A,4 | %3
{/[^G^g]} [Aa]2{/[^F^f]} [Gg]4{/[^D^d]} [Ee]2 |{/[^C^c]} [Dd]4 [=C=c]2 z2 ||S!mf! z FAB dBAF | %6
 A2 BA- A4 | z EGA cAGE | G2 AG- G4 | z [Fd] z [FA]- [FA]2 z2 | z [FB] z [FA] z [Fd] z [FA] | %11
 z [Ec] z [EG]- [EG]2 z2 | z [Ec] z [EG] z [EA] z [EG] | z FAB dBAF | A2 BA- A4 | z EGA cAGE | %16
 G2 AG- G4 | A^G-GA dcBA | G^F-FA GECG, | !>!A,D^FA !>!B,D=FB | CEGc- !>![cec']2 z2!dacoda! || %21
 !>![F^Gf][FAf]- [FAf][FGf] [FAf]2 [FGf][FAf] | !>![F^Gf][FAf]- [FAf][FGf] [FAf]4 | %23
 [E^Fe][EGe]- [EGe][EFe] [EGe]2 [EFe][EGe] | [E^Fe][EGe]- [EGe][EFe] [EGe]4 | %25
 z2 [DFd]2- [DFd][EGe]- [EGe][FAf]- | [FAf]4 [FAf]4 | z2 [EGe]2- [EGe][DFd]- [DFd][CEc]- | %28
 [CEc][C^Dc]- [CDc][CEc]- [CEc][CDc] [CEc]2 | [F^Gf][FAf]- [FAf][FGf] [FAf]2 [FGf][FAf] | %30
 [F^Gf][FAf]- [FAf][FGf] [FAf]4 | [E^Fe][EGe]- [EGe][EFe] [EGe]2 [EFe][EGe] | %32
 [E^Fe][EGe]- [EGe][EFe] [EGe]4 |!ff! z [^D^F^d]- [DFd]2- [DFd]4 | z [EGe]- [EGe]2- [EGe]4 | %35
 [GBg]2 [^G^g]<[Aa]- [Aa] z [^A^a]<[Bb] | [cec']2 z2!8va(! [c'e'c'']2!8va)! z2!D.S.! || %37
[K:F]O!mf!{CDE} FE F2 C=B, C2 | D^C D2 =C4 | D4- DEFG | [CA]4- [CA]4 |{CDE} FE F2 C=B, C2 | %42
 D^C D2 =C4 | D6 G2 | [B,EG]2 z2 [cec']2 z2 |{CDE} FE F2 C=B, C2 | D^C D2 =C4 | D4- DEFG | %48
 [^CA]2 z2 [A^ca]2 z (3=c/d/e/ |!f! !>!f2 e_e d_d c2 | !>!F2 E_E D_D C2 | x8 | z4 [FAf]2 z2 || %53
!<(! [FA]3 [FA] [FA]2 [GA^c]2 | [FAd]2 [GA^ce]2 [FAdf]2!<)! z2 |!mf! a3 f g3 e | %56
 [Af]2 [Ae]2 [Ad]2 z2 |!ff! [G=Bg]4 [^F=c^f]4 | [=F=B=f]4 [DFGd]4 | [CEGc]4 [DF=Bd]4 | %60
 [E_Be]4 z2 z (3c/d/e/ ||!f! fe z f c=B z c | d^c z d =c[Af] z2 |!<(! d4- defg | %64
 [ca]!>![cfc']-!<)! [cfc']2- [cfc']4 |{cde} fe z f c=B z c | d^c z d =c[Af] z2 | %67
 [=Bd]2 [Ba]2 [Bg][Be]- [Be][Bd] | [_Bg]2 z2 !>![cec']2 z (3c/d/e/ | fe z f c=B z c | %70
 d^c z d =c[Af] z2 | d4- defg | [^ca]2 z2!8va(! [a^c'a']2!8va)! z (3=c/d/e/ | %73
!ff! !>!f2 e_e d_d c2 | !>!F2 E_E D_D C2 | x8 | z2 !>![EBc]2 !>![FAf]2 z2 |] %77
V:2
 (3G,/A,/C/ | C2 B,A, G,2 C,D, | E,2 C,2 A,,4 | %3
{/[^G,,^G,]} [A,,A,]2{/[^F,,^F,]} [G,,G,]4{/[^D,,^D,]} [E,,E,]2 | %4
{/[^C,,^C,]} [D,,D,]4 [=C,,=C,]2 z2 ||"^Staccato." D,2 [G,B,F]2 G,,2 [G,B,F]2 | %6
 D,2 [G,B,F]2 G,,2 [G,B,F]2 | C,2 [G,CE]2 G,,2 [G,CE]2 | C,2 [G,CE]2 G,,2 [G,CE]2 | %9
 D,2 [G,B,F]2 G,,2 [G,B,F]2 | D,2 [G,B,F]2 G,,2 [G,B,F]2 | C,2 [G,CE]2 G,,2 [G,CE]2 | %12
 C,2 [G,CE]2 G,,2 [G,CE]2 | D,2 [G,B,F]2 G,,2 [G,B,F]2 | D,2 [G,B,F]2 G,,2 [G,B,F]2 | %15
 C,2 [G,CE]2 G,,2 [G,CE]2 | C,2 [G,CE]2 G,,2 [G,CE]2 | ^F,,2 [D,^F,C]2 D,,2 [D,F,C]2 | %18
 G,,2 [E,G,C]2 z4 | ^F,,2 [D,^F,C]2 D,,2 [D,F,C]2 | G,,2 [E,G,C]2 [G,CE]2 z2 || %21
"^Staccato." D,2 [F,G,B,]2 G,,2 [F,G,B,]2 | D,2 [F,G,B,]2 G,,2 [F,G,B,]2 | %23
 C,2 [E,G,C]2 G,,2 [E,G,C]2 | C,2 [E,G,C]2 G,,2 [E,G,C]2 | D,2 [F,G,B,]2 G,,2 [F,G,B,]2 | %26
 D,2 [F,G,B,]2 G,,2 [F,G,B,]2 | C,2 [E,G,C]2 G,,2 [D,G,B,] z | C,2 [E,G,]2 G,,2 [E,G,]2 | %29
 D,2 [F,G,B,]2 G,,2 [F,G,B,]2 | D,2 [F,G,B,]2 G,,2 [F,G,B,]2 | C,2 [E,G,C]2 G,,2 [E,G,C]2 | %32
 C,2 [E,G,C]2 G,,2 [E,G,C]2 | B,,2 ^D,^F, B,2 A,2 | G,2 CB, _B,A,_A,G, | %35
 [G,,G,]2 [_G,,_G,]<[F,,F,]- [F,,F,][E,,E,] [_E,,_E,]<[D,,D,] | %36
 [C,,C,]2 z2"^D. S. al" [G,CE]2 !fermata!z2 ||[K:F] F,,2 [C,F,A,]2 C,,2 [C,F,A,]2 | %38
 B,,2 [D,F,B,]2 F,,2 [C,F,A,]2 | B,,2 [D,F,B,]2 D,,2 [D,F,B,]2 | F,,2 [C,F,A,]2 C,,2 [C,F,A,]2 | %41
 F,,2 [C,F,A,]2 C,,2 [C,F,A,]2 | B,,2 [D,F,B,]2 F,,2 [C,F,A,]2 | G,,2 [F,G,=B,]2 D,,2 [F,G,B,]2 | %44
 [C,,C,]2 z2 [G,B,CE]2 z2 | F,,2 [C,F,A,]2 C,,2 [C,F,A,]2 | B,,2 [D,F,B,]2 F,,2 [C,F,A,]2 | %47
 B,,2 [D,F,B,]2 B,,,2 [F,B,D]2 | [A,,,A,,]2 z2 [A,^CG]2 z (3=C/D/E/ | !>!F2 E_E D_D C2 | %50
 !>!F,2 E,_E, D,_D, C,2 | !>!F,2 E,_E, D,_D, C,2 | !>![F,,,F,,]2 z2 [F,,C,A,]2 z2 || %53
 [D,A,D]3 [D,A,D] [D,A,D]2 [A,,A,]2 | [F,,F,]2 [E,,E,]2 [D,,D,]2 z2 | [A,DF]4 [A,^CG]4 | %56
 [A,DF]2 [A,^CG]2 [A,DF]2 z2 | [G,,G,]4 [D,,D,]4 | [G,,G,]4 [=B,,,=B,,]4 | [C,,C,]4 [G,,,G,,]4 | %60
 [C,,C,]4!8vb(! [C,,,C,,]4!8vb)! || F,,2 [A,CF]2 A,,2 [A,CF]2 | B,,2 [F,B,D]2 F,,2 [A,=CF]2 | %63
 B,,2 [F,B,D]2 [B,DF]2 [G,,G,]2 | [F,,F,]2 [A,CF]2 C,,2 [A,CF]2 | F,,2 [A,CF]2 A,,2 [A,CF]2 | %66
 B,,2 [F,B,D]2 F,,2 [A,=CF]2 | G,,2 [G,=B,F]2 D,,2 [G,B,F]2 | [C,,C,]2 z2 !>![G,B,E]2 z2 | %69
 F,,2 [A,CF]2 A,,2 [A,CF]2 | B,,2 [F,B,D]2 F,,2 [A,=CF]2 | B,,2 [F,B,D]2 [B,DF]2 [G,,G,]2 | %72
 [A,,A,]2 z2 [A,^CG]2 z (3=C/D/E/ | !>!F2 E_E D_D C2 | !>!F,2 E,_E, D,_D, C,2 | %75
 !>!F,2 E,_E, D,_D, C,2 | z2 !>![C,B,]2 !>![F,,C,A,]2 z2 |] %77
V:3
 x | x8 | x8 | x8 | x8 || x8 | x8 | x8 | x8 | x8 | x8 | x8 | x8 | x8 | x8 | x8 | x8 | x8 | x8 | %19
 x8 | x8 || x8 | x8 | x8 | x8 | x8 | x8 | x8 | x8 | x8 | x8 | x8 | x8 | x8 | x8 | x8 | x8 || %37
[K:F] x8 | x8 | x8 | x8 | x8 | x8 | x8 | x8 | x8 | x8 | x8 | x8 | x8 | x8 | %51
 F,,2 E,,_E,, D,,_D,, C,,2 | x8 || x8 | x8 | x8 | x8 | x8 | x8 | x8 | x4!8vb(! x4!8vb)! || x8 | %62
 x8 | x8 | x8 | x8 | x8 | x8 | x8 | x8 | x8 | x8 | x8 | x8 | x8 | F,,2 E,,_E,, D,,_D,, C,,2 | x8 |] %77
V:4
 x | x8 | x8 | x8 | x8 || x8 | x8 | x8 | x8 | x8 | x8 | x8 | x8 | x8 | x8 | x8 | x8 | x8 | x8 | %19
 x8 | x8 || x8 | x8 | x8 | x8 | x8 | x8 | x8 | x8 | x8 | x8 | x8 | x8 | x8 | x8 | x8 | %36
 x4!8va(! x2!8va)! x2 ||[K:F] x8 | x8 | x8 | x8 | x8 | x8 | x8 | x8 | x8 | x8 | x8 | x8 | x8 | x8 | %51
 x8 | x8 || x8 | x8 | A4 A4 | x8 | x8 | x8 | x8 | x8 || x8 | x8 | x8 | x8 | x8 | x8 | x8 | x8 | %69
 x8 | x8 | x8 | x4!8va(! x2!8va)! x2 | x8 | x8 | x8 | x8 |] %77

